flaticon/outdoor/lodge.svg

<svg xmlns="http://www.w3.org/2000/svg" width="32" height="32" viewBox="0 0 24 24">
    <path d="M 21.597656 6.996094 L 20.371094 6.101562 L 20.371094 2.472656 L 17.183594 2.472656 L 17.183594 3.769531 L 12.253906 0.167969 L 11.988281 0 L 2.417969 6.625 C 2.128906 6.824219 2.039062 7.222656 2.214844 7.527344 L 2.730469 8.421875 C 2.824219 8.585938 2.984375 8.707031 3.171875 8.746094 C 3.355469 8.789062 3.550781 8.75 3.707031 8.640625 L 5.222656 7.59375 L 5.222656 13.632812 L 6.351562 13.632812 L 5.867188 16.765625 L 4.878906 23.203125 L 4.421875 23.203125 C 4.203125 23.203125 4.023438 23.378906 4.023438 23.601562 C 4.023438 23.820312 4.203125 24 4.421875 24 L 6.019531 24 C 6.238281 24 6.417969 23.820312 6.417969 23.601562 C 6.417969 23.378906 6.238281 23.203125 6.019531 23.203125 L 5.6875 23.203125 L 5.878906 21.933594 L 10.402344 20.195312 L 10.402344 24 L 11.199219 24 L 11.199219 23.203125 L 12.796875 23.203125 L 12.796875 24 L 13.59375 24 L 13.59375 20.195312 L 18.117188 21.933594 L 18.3125 23.203125 L 17.980469 23.203125 C 17.757812 23.203125 17.578125 23.378906 17.578125 23.601562 C 17.578125 23.820312 17.757812 24 17.980469 24 L 19.574219 24 C 19.792969 24 19.972656 23.820312 19.972656 23.601562 C 19.972656 23.378906 19.792969 23.203125 19.574219 23.203125 L 19.117188 23.203125 L 18.128906 16.769531 C 18.128906 16.769531 18.128906 16.765625 18.128906 16.765625 L 17.644531 13.632812 L 18.777344 13.632812 L 18.777344 7.898438 L 20.265625 8.988281 C 20.382812 9.074219 20.523438 9.117188 20.667969 9.117188 C 20.710938 9.117188 20.757812 9.113281 20.804688 9.105469 C 20.992188 9.066406 21.15625 8.949219 21.253906 8.785156 L 21.78125 7.894531 C 21.960938 7.589844 21.878906 7.203125 21.597656 6.996094 Z M 17.980469 3.269531 L 19.574219 3.269531 L 19.574219 5.519531 L 17.980469 4.355469 Z M 10.003906 13.632812 L 10.402344 13.632812 L 10.402344 15.320312 L 6.75 16.285156 L 7.15625 13.632812 Z M 13.195312 12.835938 L 10.800781 12.835938 L 10.800781 8.851562 L 13.195312 8.851562 Z M 12.796875 19.214844 L 11.199219 19.214844 L 11.199219 18.417969 L 12.796875 18.417969 Z M 12.796875 17.621094 L 11.199219 17.621094 L 11.199219 16.824219 L 12.796875 16.824219 Z M 12.796875 16.027344 L 11.199219 16.027344 L 11.199219 15.230469 L 12.796875 15.230469 Z M 12.796875 20.011719 L 12.796875 20.808594 L 11.199219 20.808594 L 11.199219 20.011719 Z M 12.796875 14.429688 L 11.199219 14.429688 L 11.199219 13.632812 L 12.796875 13.632812 Z M 6.019531 21.027344 L 6.617188 17.144531 L 10.402344 16.144531 L 10.402344 19.339844 Z M 11.199219 22.40625 L 11.199219 21.609375 L 12.796875 21.609375 L 12.796875 22.40625 Z M 13.59375 19.339844 L 13.59375 16.144531 L 17.378906 17.144531 L 17.976562 21.027344 Z M 17.246094 16.285156 L 13.59375 15.320312 L 13.59375 13.632812 L 16.839844 13.632812 Z M 13.992188 12.835938 L 13.992188 8.050781 L 10.003906 8.050781 L 10.003906 12.835938 L 6.019531 12.835938 L 6.019531 11.640625 L 8.011719 11.640625 C 8.230469 11.640625 8.410156 11.460938 8.410156 11.242188 C 8.410156 11.023438 8.230469 10.84375 8.011719 10.84375 L 6.019531 10.84375 L 6.019531 9.648438 L 8.808594 9.648438 C 9.03125 9.648438 9.207031 9.46875 9.207031 9.25 C 9.207031 9.027344 9.03125 8.851562 8.808594 8.851562 L 6.019531 8.851562 L 6.019531 7.652344 L 8.011719 7.652344 C 8.230469 7.652344 8.410156 7.476562 8.410156 7.253906 C 8.410156 7.035156 8.230469 6.855469 8.011719 6.855469 L 6.285156 6.855469 L 8.015625 5.660156 L 10.003906 5.660156 C 10.226562 5.660156 10.402344 5.480469 10.402344 5.261719 C 10.402344 5.042969 10.226562 4.863281 10.003906 4.863281 L 9.167969 4.863281 L 11.96875 2.925781 L 14.621094 4.863281 L 12.796875 4.863281 C 12.574219 4.863281 12.398438 5.042969 12.398438 5.261719 C 12.398438 5.480469 12.574219 5.660156 12.796875 5.660156 L 15.585938 5.660156 C 15.621094 5.660156 15.652344 5.648438 15.683594 5.640625 L 17.347656 6.855469 L 14.390625 6.855469 C 14.171875 6.855469 13.992188 7.035156 13.992188 7.253906 C 13.992188 7.476562 14.171875 7.652344 14.390625 7.652344 L 17.980469 7.652344 L 17.980469 8.851562 L 15.984375 8.851562 C 15.765625 8.851562 15.585938 9.027344 15.585938 9.25 C 15.585938 9.46875 15.765625 9.648438 15.984375 9.648438 L 17.980469 9.648438 L 17.980469 10.84375 L 15.1875 10.84375 C 14.96875 10.84375 14.789062 11.023438 14.789062 11.242188 C 14.789062 11.460938 14.96875 11.640625 15.1875 11.640625 L 17.980469 11.640625 L 17.980469 12.835938 Z M 20.632812 8.269531 L 18.777344 6.910156 L 11.980469 1.945312 L 5.222656 6.625 L 3.355469 7.914062 L 2.957031 7.222656 L 11.992188 0.96875 L 17.441406 4.949219 L 20.371094 7.089844 L 21.039062 7.578125 Z M 20.632812 8.269531"/>
    <path d="M11.601562 10.84375C11.601562 11.0625 11.421875 11.242188 11.199219 11.242188 10.980469 11.242188 10.800781 11.0625 10.800781 10.84375 10.800781 10.625 10.980469 10.445312 11.199219 10.445312 11.421875 10.445312 11.601562 10.625 11.601562 10.84375zM19.175781 2.074219C19.394531 2.074219 19.574219 1.894531 19.574219 1.671875L19.574219.476562C19.574219.257812 19.394531.078125 19.175781.078125 18.953125.078125 18.777344.257812 18.777344.476562L18.777344 1.671875C18.777344 1.894531 18.953125 2.074219 19.175781 2.074219zM17.980469 1.671875C18.199219 1.671875 18.378906 1.496094 18.378906 1.273438L18.378906.875C18.378906.65625 18.199219.476562 17.980469.476562 17.757812.476562 17.578125.65625 17.578125.875L17.578125 1.273438C17.578125 1.496094 17.757812 1.671875 17.980469 1.671875zM17.980469 1.671875"/>
</svg>

<svg xmlns="http://www.w3.org/2000/svg" width="32" height="32" viewBox="0 0 24 24">
    <path d="M21.598 6.996l-1.227-.894v-3.63h-3.187V3.77L12.254.168 11.988 0l-9.57 6.625a.688.688 0 0 0-.203.902l.515.895a.67.67 0 0 0 .442.324.67.67 0 0 0 .535-.105l1.516-1.047v6.039h1.129l-.485 3.133-.988 6.437h-.457a.398.398 0 1 0 0 .797H6.02a.398.398 0 1 0 0-.797h-.333l.192-1.27 4.523-1.738V24h.797v-.797h1.598V24h.797v-3.805l4.523 1.739.195 1.27h-.332a.398.398 0 1 0 0 .796h1.594a.398.398 0 1 0 0-.797h-.457l-.988-6.433v-.004l-.484-3.133h1.132V7.898l1.489 1.09a.677.677 0 0 0 .402.13.688.688 0 0 0 .586-.332l.527-.891a.683.683 0 0 0-.183-.899zM17.98 3.27h1.594v2.25L17.98 4.355zm-7.976 10.363h.398v1.687l-3.652.965.406-2.652zm3.191-.797h-2.394V8.852h2.394zm-.398 6.379h-1.598v-.797h1.598zm0-1.594h-1.598v-.797h1.598zm0-1.594h-1.598v-.797h1.598zm0 3.985v.797h-1.598v-.797zm0-5.582h-1.598v-.797h1.598zM6.02 21.027l.597-3.882 3.785-1v3.195zm5.18 1.38v-.798h1.597v.797zm2.394-3.067v-3.195l3.785 1 .598 3.882zm3.652-3.055l-3.652-.965v-1.687h3.246zm-3.254-3.45V8.052h-3.988v4.785H6.02V11.64h1.992a.4.4 0 0 0 .398-.399.4.4 0 0 0-.398-.398H6.02V9.648h2.789c.222 0 .398-.18.398-.398a.395.395 0 0 0-.398-.398h-2.79v-1.2h1.993a.398.398 0 1 0 0-.797H6.285l1.73-1.195h1.989a.398.398 0 1 0 0-.797h-.836l2.8-1.937 2.653 1.937h-1.824a.398.398 0 1 0 0 .797h2.789c.035 0 .066-.012.098-.02l1.664 1.215H14.39a.398.398 0 1 0 0 .797h3.59v1.2h-1.997a.398.398 0 1 0 0 .796h1.996v1.196h-2.793a.4.4 0 0 0-.398.398.4.4 0 0 0 .399.399h2.792v1.195zm6.64-4.565l-1.855-1.36-6.797-4.965-6.757 4.68-1.868 1.29-.398-.692L11.992.969l5.45 3.98 2.93 2.14.667.49zm0 0"/>
    <path d="M11.602 10.844a.401.401 0 0 1-.801 0 .4.4 0 0 1 .8 0zm0 0M19.176 2.074c.219 0 .398-.18.398-.402V.477a.398.398 0 1 0-.797 0v1.195c0 .223.176.402.399.402zm0 0M17.98 1.672a.398.398 0 0 0 .399-.399V.875a.4.4 0 0 0-.8 0v.398c0 .223.179.399.401.399zm0 0"/>
</svg>
